X:1
T:Title
%%score { ( 1 3 ) | ( 2 4 ) }
L:1/8
M:4/4
K:A
V:1 treble nm="Grand Piano"
V:3 treble 
V:2 bass 
V:4 bass 
V:1
 z4 z2[Q:1/4=100] [CE]2 | [CE]3 [CE] [=C^D]2 [^CE]2 | [DF]2 [FA]2 [Ec]3 B | A2 G2 F2 G2 | %4
[M:3/4] [DF]4 [CE]2 |[M:1/4] [CE]2 |[M:4/4] z4 .F2 z2 | [Ec]2 [=Ge]2 .[Fe]2 cB | A2 G2 c3 B | %9
[M:7/8] [CA]-[CA]-[CA]- [CA]3 z |[M:1/8] e |[M:4/4] e>^d e>f e2 [Ec]2 | %12
 [EB]2 [A,EA]2 [A,DF]2 [A,DA]2 | [CE]2 [EA]2 [EAc]2 [FBd]2 | [Ac]4 [GB]2 z [Ge] | %15
 e>^d e>f e3 [E=GA] | [FA]>[^EG] [FA]>[EB] [FA]3 F | E>E A>B c2 dc |[M:3/4] B4 [CA]2 |] %19
V:2
 z4 z2 [A,,A,]2 | [A,,A,]3 [A,,A,] [A,,A,]2 [A,,A,]2 | [A,,A,]2 [A,,A,]2 [A,,A,]3 [D,F,D] | %3
 [E,C]2 [E,B,]2 [E,B,D]2 [E,B,D]2 |[M:3/4] [A,,A,]6 |[M:1/4] [A,,A,]2 | %6
[M:4/4] [A,,A,]3 [A,,A,] [A,,A,]2 [A,,A,]2 | [A,,A,]2 [C,A,]2 z[K:treble] d[K:bass] D,2 | %8
 [E,CE]2 [E,B,E]2 [E,A,E]3 [E,G,D] |[M:7/8] [A,,A,]-[A,,A,]-[A,,A,]- [A,,A,]3 z | %10
[M:1/8][K:treble] [A,CA] |[M:4/4] [A,CA]>[A,=CA] [A,^CA]>[A,DA] [A,CA]2[K:bass] [A,,A,]2 | %12
 [B,,G,]2 C,2 D,2 F,2 | A,4 z4 | [E,E]4 [E,E]2 z [E,D] | %15
 [A,CA]>[A,=CA] [A,^CA]>[A,DA] [A,CA]3[K:bass] C, | [D,D]>[D,D] [D,D]>[D,D] [D,D]3 [D,A,D] | %17
 [E,A,C]>[E,A,C] [E,A,C]>[E,A,D] [E,A,E]2 [E,A,F][E,A,E] |[M:3/4] [E,G,D]4 [A,,A,]2 |] %19
V:3
 x8 | x8 | x8 | x8 |[M:3/4] x6 |[M:1/4] x2 |[M:4/4] [CE]3 [CE] C-[CG][CA][DB] | z4 z2 [DF]2 | x8 | %9
[M:7/8] x7 |[M:1/8] x |[M:4/4] x8 | x8 | x8 | x8 | x8 | x8 | x8 |[M:3/4] x6 |] %19
V:4
 x8 | x8 | x8 | x8 |[M:3/4] x6 |[M:1/4] x2 |[M:4/4] x8 | z4 [D,A,]2[K:treble][K:bass] z2 | x8 | %9
[M:7/8] x7 |[M:1/8][K:treble] x |[M:4/4] x6[K:bass] x2 | x8 | z2 C2 A,2 D,2 | x8 | x7[K:bass] x | %16
 x8 | x8 |[M:3/4] x6 |] %19

